X:131
T:Lightnin' Bug
S:Learned from Paul Beck of Temple PA and Carl Baron of Gwynned PA
M:4/4
L:1/4
K:D
|:"D"fdA2|fdA2|a>a^ga|ba^ga|
"D"fdA2|fdA2|"A"a>afe|"D"d2>z2:|
K:G
"G"B>c^cd|edd>g|"D"fdef|"G"gabz|
"G"B>c^cd|edd>g|"D"fdef|"G"g2g2||
"G"B>c^cd|edd>g|"D"fdef|"G"aggz|
"G"B>c^cd|eda>g| fdcA|G2>z2|]
